images_sukapura_svg/cmd/sc_inserttable.svg

<svg viewBox="0 0 16 16" xmlns="http://www.w3.org/2000/svg">




     /&amp;amp;gt;
 <path d="m0 5v9.5c-.00038442.276301.22369855.500384.5.5h15c.276301.000384.500384-.223699.5-.5v-9.5h-.998047v9.001953h-14.00390612v-9.001953z" fill="#69696e"/><path d="m1 5h14v9h-14z" fill="#fff"/><path d="m0 1h16v4h-16z" fill="#0a84ff"/><path d="m5 5v4h-4v1h4v4h1v-4h4v4h1v-4h4v-1h-4v-4h-1v4h-4v-4z" fill="#bababa"/><path d="m.50195312 1.0019531c-.27630145-.000384-.50038441.223699-.49999999.5v3.4980469h.99804687 14v-1h-4v-2h4.003906v3h.998047v-3.4980469c.000384-.276301-.223699-.500384-.5-.5zm.49804688.9980469h4v2h-4zm5 0h4v2h-4z" fill="#0040dd"/></svg>

<?xml version="1.0" encoding="UTF-8" standalone="no"?>
<svg
   xmlns:dc="http://purl.org/dc/elements/1.1/"
   xmlns:cc="http://creativecommons.org/ns#"
   xmlns:rdf="http://www.w3.org/1999/02/22-rdf-syntax-ns#"
   xmlns:svg="http://www.w3.org/2000/svg"
   xmlns="http://www.w3.org/2000/svg"
   xmlns:sodipodi="http://sodipodi.sourceforge.net/DTD/sodipodi-0.dtd"
   xmlns:inkscape="http://www.inkscape.org/namespaces/inkscape"
   viewBox="0 0 16 16"
   version="1.1"
   id="svg8"
   sodipodi:docname="sc_inserttable.svg"
   inkscape:version="0.92.3 (unknown)"><metadata
   id="metadata14">
  <rdf:RDF>
    <cc:Work
       rdf:about="">
      <dc:format>image/svg+xml</dc:format>
      <dc:type
         rdf:resource="http://purl.org/dc/dcmitype/StillImage" />
    </cc:Work>
  </rdf:RDF>
</metadata>
<defs
   id="defs12" />
<sodipodi:namedview
   pagecolor="#ffffff"
   bordercolor="#666666"
   borderopacity="1"
   objecttolerance="10"
   gridtolerance="10"
   guidetolerance="10"
   inkscape:pageopacity="0"
   inkscape:pageshadow="2"
   inkscape:window-width="1366"
   inkscape:window-height="706"
   id="namedview10"
   showgrid="true"
   inkscape:zoom="7.375"
   inkscape:cx="-38.037724"
   inkscape:cy="14.883807"
   inkscape:window-x="0"
   inkscape:window-y="0"
   inkscape:window-maximized="1"
   inkscape:current-layer="svg8">
  <inkscape:grid
     type="xygrid"
     id="grid821" />
</sodipodi:namedview>




     /&amp;gt;
 <g
   id="g1511">
  <path
     style="fill:#69696e;fill-opacity:1"
     id="path823"
     d="M 0 5 L 0 14.5 C -0.00038442 14.776301 0.22369855 15.000384 0.5 15 L 15.5 15 C 15.776301 15.000384 16.000384 14.776301 16 14.5 L 16 5 L 15.001953 5 L 15.001953 14.001953 L 0.99804688 14.001953 L 0.99804688 5 L 0 5 z " />
  <path
     id="path2"
     fill="#fff"
     d="m1 5h14v9h-14z" />
  <path
     style="fill:#0a84ff;fill-opacity:1"
     id="path6"
     fill="#4d82b8"
     d="m0 1h16v4h-16z" />
  <path
     id="rect825"
     d="M 5 5 L 5 9 L 1 9 L 1 10 L 5 10 L 5 14 L 6 14 L 6 10 L 10 10 L 10 14 L 11 14 L 11 10 L 15 10 L 15 9 L 11 9 L 11 5 L 10 5 L 10 9 L 6 9 L 6 5 L 5 5 z "
     style="opacity:1;fill:#bababa;fill-opacity:1;stroke:none;stroke-width:1;stroke-linecap:round;stroke-linejoin:round;stroke-miterlimit:4;stroke-dasharray:none;stroke-opacity:1" />
  <path
     id="path831"
     d="M 0.50195312 1.0019531 C 0.22565167 1.0015691 0.001568705 1.2256521 0.001953125 1.5019531 L 0.001953125 5 L 1 5 L 15 5 L 15 4 L 11 4 L 11 2 L 15.003906 2 L 15.003906 5 L 16.001953 5 L 16.001953 1.5019531 C 16.002337 1.2256521 15.778254 1.0015691 15.501953 1.0019531 L 0.50195312 1.0019531 z M 1 2 L 5 2 L 5 4 L 1 4 L 1 2 z M 6 2 L 10 2 L 10 4 L 6 4 L 6 2 z "
     style="fill:#0040dd;fill-opacity:1" />
</g>
</svg>
